svgs/regular/books-medical.svg

<svg xmlns="http://www.w3.org/2000/svg" viewBox="0 0 576 512"><!--! Font Awesome Pro 6.0.0-alpha3 by @fontawesome - https://fontawesome.com License - https://fontawesome.com/license (Commercial License) --><path d="M79.1 352h31.1c8.836 0 16-7.164 16-16L127.1 288h47.1c8.836 0 16-7.165 16-16v-32c0-8.836-7.165-15.1-16-15.1H127.1l.0006-47.1c0-8.836-7.165-15.1-16-15.1H79.1c-8.836 0-15.1 7.163-15.1 15.1L63.1 224H16c-8.836 0-16 7.163-16 15.1v32c0 8.836 7.164 16 16 16h47.1L63.1 336C63.1 344.8 71.16 352 79.1 352zM574.4 435.4l-107.7-399.9C460.9 14.08 441.5 0 420.4 0c-4.111 0-8.294 .5313-12.46 1.641l-61.82 16.48c-5.885 1.57-11.14 4.258-15.78 7.633C322.3 10.51 306.4 0 288 0H224C215.2 0 207.1 2.531 200 6.656C192.9 2.531 184.8 0 176 0h-64C85.49 0 64 21.49 64 48v56C64 117.3 74.75 128 88 128S112 117.3 112 104V48h64v120C176 181.3 186.7 192 200 192S224 181.3 224 168V144h64v224H224v-24C224 330.7 213.3 320 200 320S176 330.7 176 344v120h-64v-56C112 394.7 101.3 384 88 384S64 394.7 64 408v56C64 490.5 85.49 512 112 512h64c8.787 0 16.92-2.531 24-6.656C207.1 509.5 215.2 512 224 512h64c26.51 0 48-21.49 48-48V165.3l83.8 311.3C425.6 497.9 444.9 512 466.1 512c4.111 0 8.293-.5313 12.46-1.641l61.91-16.51C565.1 487.1 581.2 460.8 574.4 435.4zM288 464H224L224 416H288V464zM288 96H224L224 48h64V96zM358.4 64.5l61.83-16.48l12.47 45.91L370.8 110.4L358.4 64.5zM383.3 156.6l61.91-16.51l58.04 215.3l-61.91 16.51L383.3 156.6zM466.2 464.1l-12.41-46.04l61.91-16.51l12.38 45.94L466.2 464.1z"/></svg>

<svg xmlns="http://www.w3.org/2000/svg" viewBox="0 0 576 512"><!-- Font Awesome Pro 6.0.0-alpha2 by @fontawesome - https://fontawesome.com License - https://fontawesome.com/license (Commercial License) --><path d="M79.998 352H111.996C120.832 352 127.996 344.836 127.996 336V288.004H175.994C184.83 288.004 191.994 280.84 191.994 272.004V240.004C191.994 231.168 184.83 224.004 175.994 224.004H127.996V176.008C127.996 167.172 120.832 160.008 111.996 160.008H79.998C71.162 160.008 63.998 167.172 63.998 176.008V224.004H16C7.164 224.004 0 231.168 0 240.004V272.004C0 280.84 7.164 288.004 16 288.004H63.998V336C63.998 344.836 71.162 352 79.998 352ZM574.354 435.363L466.686 35.422C460.939 14.078 441.547 0 420.354 0C416.242 0 412.059 0.531 407.896 1.641L346.078 18.125C340.193 19.695 334.939 22.383 330.295 25.758C322.254 10.508 306.436 0 288 0H224C215.213 0 207.084 2.531 200 6.656C192.916 2.531 184.787 0 176 0H112C85.49 0 64 21.492 64 48V104C64 117.254 74.746 128 88 128S112 117.254 112 104V48H176V168C176 181.254 186.746 192 200 192S224 181.254 224 168V144H288V368H224V344C224 330.742 213.254 320 200 320S176 330.742 176 344V464H112V408C112 394.742 101.254 384 88 384S64 394.742 64 408V464C64 490.508 85.49 512 112 512H176C184.787 512 192.916 509.469 200 505.344C207.084 509.469 215.213 512 224 512H288C314.51 512 336 490.508 336 464V165.281L419.805 476.578C425.553 497.926 444.945 512 466.139 512C470.25 512 474.432 511.469 478.594 510.359L540.6 493.824C566.084 487.031 581.211 460.832 574.354 435.363ZM288 464H224V416H288V464ZM288 96H224V48H288V96ZM358.445 64.504L420.271 48.02L420.361 48L432.742 93.93L370.828 110.445L358.445 64.504ZM383.266 156.586L445.18 140.074L503.223 355.41L441.309 371.922L383.266 156.586ZM466.154 464.102L453.746 418.066L515.66 401.555L528.045 447.496L466.154 464.102Z"/></svg>
